X:1
T:O Beautiful Blossom of Pity!
T:O Beautiful Blossom of Pity!
T:Adam Geibel
T:Flora Kirkland, 1900
T:Public Domain Courtesy of the Cyber Hymnal™
T:Public Domain Courtesy of the Cyber Hymnal™
C:Adam Geibel
Z:Public Domain
Z:Courtesy of the Cyber Hymnal™
%%score ( 1 2 ) ( 3 4 )
L:1/8
Q:1/4=80
M:6/8
K:G
V:1 treble 
V:2 treble 
V:3 bass 
V:4 bass 
V:1
"^Solo or Duet" [B,D]/[B,G]/ | [DB][^C^A][DB] [Fd][F=A][E=c] | [DB] [B,G]3 z [B,G]/[=FG]/ | %3
w: 1.~There’s a|beau- ti- ful blos- som called|Pi- ty, And it|
w: 2.~In His|love and His pi- ty He|sought us, The Re-|
w: 3.~See the|mul- ti- tude throng- ing a-|round Him! See His|
w: 4.~And to-|day there are ten- der hearts|car- ing For the|
 [EG][^DF][EG] [Ec][EG][_EA] | [DB]4 z [B,D]/[B,G]/ | [DB][^C^A][DB] [Fd][F=A][E=c] | %6
w: grew in a heav- en- ly|clime; But it|bloomed in the life- time of|
w: deem- er and lov- er of|all; And He|found us and bought us for|
w: beau- ti- ful pi- ty- ing|love Flow- ing|forth in His mar- vels of|
w: sick ones in ev- er- y|clime; ’Tis the|seed from the blos- som of|
 [DB] [B,G]3 z [DB]/[GB]/ | [FA][^E^G][FA] [=G^c][GB][GA] | [Fd]4 z ||"^Refrain" [Dd] | %10
w: Je- sus, On the|sor- row- ful low- lands of|time.||
w: Hea- ven, And He|help- eth us now when we|call.|O,|
w: heal- ing, Shed- ding|per- fume from Hea- ven a-|bove.||
w: Pi- ty, Tak- ing|root in the low- lands of|time.||
 [Fd][Fc][^EB] [Fc][F=e][Fd] | [Gc] [GB]3 z [DB] | [^DB][DF][EG] [FA][DB][DF] | [EG]4 z G | %14
w: ||||
w: beau- ti- ful blos- som of|Pi- ty! A|flower from a hea- ven- ly|clime! Trans-|
w: ||||
w: ||||
 [Ge][Ge][Ge] [Ge][Gd][G^c] | [Ge] [Gd]3 z G | [Gc][Gc][Gc] [FB][FB][FA] | [DG]3- [DG]2 |] %18
w: ||||
w: plant- ed from yon- der bright|ci- ty, It|grows in the low- lands of|time. *|
w: ||||
w: ||||
V:2
 x | x6 | x6 | x6 | x6 | x6 | x6 | x6 | x5 || x | x6 | x6 | x6 | x5 G | x6 | x5 G | x6 | x5 |] %18
V:3
 z | G,,D,G, D,,D,F, | G,, (B,,D,G,D,)G,, | B,,G,C C,G,C | (G,,B,,D,G,D,)B,, | G,,D,G, D,,D,F, | %6
 G,, (B,,D,G,D,)G,, | A,,A,A, A,,A,A, | (D,F,A, D,) z || D, | %10
 [D,A,][D,A,][D,^G,] [D,A,][D,D][D,D] | [G,D] [G,D]3 z [G,,G,] | %12
 [B,,F,][B,,B,][B,,B,] [B,,B,][B,,B,][B,,B,] | [E,B,]4 z G, | [C,C][C,C][C,C] [C,C][D,B,][_E,^A,] | %15
 [D,B,] [D,B,]3 z [E,B,] | [A,,E][A,,E][A,,E] [D,D][D,D][D,C] | [G,,B,]3- [G,,B,]2 |] %18
V:4
 x | x6 | x6 | x6 | x6 | x6 | x6 | x6 | x5 || D, | x6 | x6 | x6 | x5 G, | x6 | x6 | x6 | x5 |] %18

